X:1
T:Title
%%score { ( 1 4 ) | ( 2 3 ) }
L:1/8
Q:1/4=100
M:4/4
K:Ab
V:1 treble nm="Grand Piano"
V:4 treble 
V:2 bass 
V:3 bass 
V:1
 [Ec]2 [DB]>[CA] [CE]3 E | F2 A2 E3 E | A2 A2 A2 GA | [GB]2 [Ac]d [EAc]4 | %4
w: J.~M.~Dungan * * * *||||
 [Ec]2 [DB]>[CA] [CE]3 E | F2 A2 E3 E | F2 [Fd]2 [Ec]2 [DFB]2 | [CEA]2 [DEG]2 [CEA]4 | %8
w: ||||
 e2 e>e e3 [Ac] | [EA]2 B2 c3 c | d2 d2 [Ec]2 ec | z4 B4[K:bass] | [Ec]2 [DB]>[CA] [CE]3 E | %13
w: |||||
 F2 A2 E3 E | F2 [Fd]2 [Ec]2 [DFB]2 | [CEA]2 [DEG]2 [CEA]4 |] %16
w: |||
V:2
 [A,,A,]2 [A,,A,]>[A,,A,] [A,,A,]3 [C,A,] | [D,A,D]2 [F,A,D]2 [A,C]3 [A,C] | %2
 [F,CF]2 [F,CF]2 [F,CF]2 [F,CF]2 | [E,E]2 z[K:treble] B[K:bass] A,,4 | %4
 [A,,A,]2 [A,,A,]>[A,,A,] [A,,A,]3 [C,A,] | [D,A,D]2 [F,A,D]2 [A,C]3 [A,C] | %6
 [D,A,D]2 [B,,B,]2 [C,A,]2 D,2 | E,2 E,2 A,,4 | [A,,CA]2 [A,,CA]>[A,,CA] [A,,CA]3 [A,,A,] | %9
 [C,A,]2 [E,G,E]2 [A,E]3 [A,E] | z4 z2 .C2 | [E,G,E]2 [B,,A,]2 [E,G,E]4 | %12
 [A,,A,]2 [A,,A,]>[A,,A,] [A,,A,]3 [C,A,] | [D,A,D]2 [F,A,D]2 [A,C]3 [A,C] | %14
 [D,A,D]2 [B,,B,]2 [C,A,]2 D,2 | E,2 E,2 A,,4 |] %16
V:3
 x8 | x8 | x8 | z2 [E,E]2[K:treble][K:bass] z4 | x8 | x8 | x8 | x8 | x8 | x8 | %10
 [E,G,E]2 [E,G,E]2 [A,,A,]2 [A,,E]-[A,,A,E] | x8 | x8 | x8 | x8 | x8 |] %16
V:4
 x8 | x8 | x8 | x8 | x8 | x8 | x8 | x8 | x8 | x8 | x8 | B2 [=DB]2 z[K:bass] D,C,B,, | x8 | x8 | %14
 x8 | x8 |] %16

